X: 14
T: Andante
C: Armand Aromin
H: 10/28/04
M: 2/4
L: 1/8
R: 
K: Gmaj
B2 d2 | cB AG | F2 A2 | cB AG |
B2 d2 | cB AG | FG Ac | BG G2 :|
f2 g2 | a^g a2 | f2 g2 | a^g ab |
ag fe | d2 db | ag fe |1 d4 :|2 d2 de ||
K: D 
f2 fg | e2 ef | d2 de | A4 |
f2 fg | e2 ef | d2 ef |1 a4 :|2 d4 |]
